X: 1
T: Boar's Head, The
M: 4/4
L: 1/8
R: hornpipe
K: Gmaj
(3def|gfgb afdB|cBce dBGD|B,DEF GABc|(3ded (3Bdc A2 (3def|
gfgb afdB|cBce dBGD|B,DEF GABc|(3Bdc (3AcB G2:|
|:A2|BGAB cdef|gfgb afdc|Bdef gabg|(3abg (3fge d2 ef|
gfgb afdB|cBce dBGD|B,DGB dcAF|G2 B2 G2:||
